X:1
T:Title
%%score { 1 | 2 }
L:1/8
M:4/4
K:G
V:1 treble nm="Grand Piano"
V:2 bass 
V:1
 z4 z2 z[Q:1/4=100] D | E G3 G3 A | B2 B2 B3 B | d3 e d2 B2 |[M:7/8] B2 [FA]2 [FA]2 z |[M:1/8] D | %6
[M:4/4] E G3 G3 A | B2 B2 B3 B | d3 e d2 G2 |[M:7/8] [GB]2 [FA]2 [B,DG]2 z |[M:1/8] d | %11
[M:4/4] d3 e d .B3 | B2 B2 B2 z B | d3 e d .B3 |[M:7/8] B2 [FA]2 [FA]2 z |[M:1/8] D | %16
[M:4/4] E G3 G3 A | B2 B2 B2 z B | d3 e d .B3 |[M:7/8] [GB]2 [FA]2 [B,DG]2 z |] %20
V:2
 z4 z2 z [G,B,] | [G,B,C] [G,B,D]3 [G,B,D]3 [G,CD] | [G,DG]2 [G,DG]2 [G,DG]3 [G,B,G] | %3
 [G,B,G]3 [G,CG] [G,B,G]2 [G,DG]2 |[M:7/8] [G,DG]2[K:bass] [D,D]2 [D,D]2 z |[M:1/8] [G,B,] | %6
[M:4/4] [G,B,C] [G,B,D]3[K:treble] [G,B,D]3 [G,CD] | [G,DG]2 [G,DG]2 [G,DG]3 [G,DG] | %8
 [G,B,G]3 [G,CG] [G,B,G]2[K:bass] [G,B,D]2 |[M:7/8] [D,D]2 [D,C]2 [G,,G,]2 z | %10
[M:1/8][K:treble] [G,B,G] |[M:4/4] [G,B,G]3 [G,CG] [G,B,G] .[G,DG]3 | %12
 [G,DG]2 [G,DG]2 [G,DG]2 z [G,B,G] | [G,B,G]3 [G,CG] [G,B,G] .[G,DG]3 | %14
[M:7/8] [G,DG]2[K:bass] [D,D]2 [D,D]2 z |[M:1/8] [G,B,] | %16
[M:4/4] [G,B,C] [G,B,D]3[K:treble] [G,B,D]3 [G,CF] | [G,DG]2 [G,DG]2 [G,DG]2 z [G,B,G] | %18
 [G,B,G]3 [G,CG] [G,B,G] .[G,DG]3 |[M:7/8][K:bass] [D,D]2 [D,C]2 [G,,G,]2 z |] %20

